X:4972
T:Paddy's Rambles. JMT046
O:england
M:6/8
L:1/8
S:J.Moore,Tyneside,1841.(34a)
R:Jig
A:Northumbria
H:184
K:D
F|A>BA AFD|d>ed cBA|afd afd|ceee2F/-G/|A>BA AFD|d>ed cBA|afd gec|dddd2:
|
|:A|dfa dfa|cea cea|dcd Bed|cAAA2G/-F/|GBd GAd|FAd FAd|GFG EAG|FDDD2:|]


